assets/icons/qvision/adb.svg

<svg width="24" height="24" viewBox="0 0 24 24" fill="none" xmlns="http://www.w3.org/2000/svg">
<g clip-path="url(#clip0_147_5881)">
<path d="M5 15.9999C5 19.8699 8.13 22.9999 12 22.9999C15.87 22.9999 19 19.8699 19 15.9999V11.9999H5V15.9999ZM16.12 4.36994L18.22 2.26994L17.4 1.43994L15.1 3.74994C14.16 3.27994 13.12 2.99994 12 2.99994C10.88 2.99994 9.84 3.27994 8.91 3.74994L6.6 1.43994L5.78 2.26994L7.88 4.36994C6.14 5.63994 5 7.67994 5 9.99994V10.9999H19V9.99994C19 7.67994 17.86 5.63994 16.12 4.36994ZM9 8.99994C8.45 8.99994 8 8.54994 8 7.99994C8 7.44994 8.45 6.99994 9 6.99994C9.55 6.99994 10 7.44994 10 7.99994C10 8.54994 9.55 8.99994 9 8.99994ZM15 8.99994C14.45 8.99994 14 8.54994 14 7.99994C14 7.44994 14.45 6.99994 15 6.99994C15.55 6.99994 16 7.44994 16 7.99994C16 8.54994 15.55 8.99994 15 8.99994Z" fill="#323232"/>
</g>
<defs>
<clipPath id="clip0_147_5881">
<rect width="24" height="24" fill="white"/>
</clipPath>
</defs>
</svg>

<svg xmlns="http://www.w3.org/2000/svg" height="24" viewBox="0 0 24 24" width="24"><path d="M0 0h24v24H0z" fill="none"/><path d="M5 16c0 3.87 3.13 7 7 7s7-3.13 7-7v-4H5v4zM16.12 4.37l2.1-2.1-.82-.83-2.3 2.31C14.16 3.28 13.12 3 12 3s-2.16.28-3.09.75L6.6 1.44l-.82.83 2.1 2.1C6.14 5.64 5 7.68 5 10v1h14v-1c0-2.32-1.14-4.36-2.88-5.63zM9 9c-.55 0-1-.45-1-1s.45-1 1-1 1 .45 1 1-.45 1-1 1zm6 0c-.55 0-1-.45-1-1s.45-1 1-1 1 .45 1 1-.45 1-1 1z"/></svg>
